icons/modern/litter-in-bin-sign.svg

<svg width="32" height="32" viewBox="0 0 32 32" fill="none" xmlns="http://www.w3.org/2000/svg">
<g filter="url(#filter0_ii_18590_364)">
<rect x="2.06604" y="1.9375" width="27.875" height="27.875" rx="3.6" fill="url(#paint0_linear_18590_364)"/>
<rect x="2.06604" y="1.9375" width="27.875" height="27.875" rx="3.6" fill="url(#paint1_radial_18590_364)"/>
</g>
<g filter="url(#filter1_f_18590_364)">
<path d="M28.2535 4.4375V27.3125" stroke="url(#paint2_linear_18590_364)" stroke-width="1.5" stroke-linecap="round"/>
</g>
<g filter="url(#filter2_f_18590_364)">
<path d="M5.52991 3.75H27.3112" stroke="url(#paint3_linear_18590_364)" stroke-width="1.5" stroke-linecap="round"/>
</g>
<g filter="url(#filter3_f_18590_364)">
<path d="M19.8508 9.4375C21.2316 9.4375 22.3508 8.31821 22.3508 6.9375C22.3508 5.55679 21.2316 4.4375 19.8508 4.4375C18.4701 4.4375 17.3508 5.55679 17.3508 6.9375C17.3508 8.31821 18.4701 9.4375 19.8508 9.4375Z" fill="#579FFF"/>
<path d="M23.1821 10.682H17.2183C16.3052 10.682 15.489 11.2501 15.1715 12.1058L14.2163 14.6793C14.2017 14.7185 14.1643 14.7445 14.1225 14.7445H12.4202C11.8815 14.7445 11.4183 15.1583 11.3933 15.6964C11.3665 16.2708 11.824 16.7445 12.3921 16.7445H14.339C15.084 16.7445 15.7577 16.2751 16.0165 15.5764L17.0108 12.8883C17.0402 12.8095 17.1102 12.7495 17.194 12.7445C17.3133 12.737 17.4127 12.8314 17.4127 12.9495V25.7158C17.4127 26.2545 17.8265 26.7176 18.3646 26.7426C18.939 26.7695 19.4127 26.312 19.4127 25.7439V18.7816C19.4127 18.5153 19.614 18.2829 19.8796 18.2654C20.1616 18.2654 20.4127 18.4772 20.4127 18.7641V25.7158C20.4127 26.2545 20.8265 26.7176 21.3646 26.7426C21.939 26.7695 22.4127 26.312 22.4127 25.7439L22.4315 13.2426C22.4315 12.9676 22.6546 12.7439 22.9302 12.7439C23.2059 12.7439 23.429 12.967 23.429 13.2426L23.4102 18.0939C23.4102 18.662 23.884 19.1195 24.4584 19.0926C24.9965 19.0676 25.4102 18.6039 25.4102 18.0658V12.9095C25.4096 11.6795 24.4121 10.682 23.1821 10.682Z" fill="#579FFF"/>
<path d="M10.5083 17.4231L9.54264 18.3888C9.43452 18.4969 9.43452 18.6731 9.54264 18.7813L10.9614 20.2C11.0695 20.3081 11.2458 20.3081 11.3539 20.2L12.3195 19.2344C12.4276 19.1263 12.4276 18.95 12.3195 18.8419L10.9008 17.4231C10.7926 17.315 10.617 17.315 10.5083 17.4231Z" fill="#579FFF"/>
<path d="M13.4308 18.9375V25.3375C13.4308 25.3927 13.386 25.4375 13.3308 25.4375H8.53079C8.47556 25.4375 8.43079 25.3927 8.43079 25.3375V18.9375C8.43079 18.6613 8.20704 18.4375 7.93079 18.4375C7.65454 18.4375 7.43079 18.6613 7.43079 18.9375V25.6875C7.43079 26.1019 7.76641 26.4375 8.18079 26.4375H13.6808C14.0952 26.4375 14.4308 26.1019 14.4308 25.6875V18.9375C14.4308 18.6613 14.207 18.4375 13.9308 18.4375C13.6545 18.4375 13.4308 18.6613 13.4308 18.9375Z" fill="#579FFF"/>
</g>
<g filter="url(#filter4_ii_18590_364)">
<path d="M19.8508 9.4375C21.2316 9.4375 22.3508 8.31821 22.3508 6.9375C22.3508 5.55679 21.2316 4.4375 19.8508 4.4375C18.4701 4.4375 17.3508 5.55679 17.3508 6.9375C17.3508 8.31821 18.4701 9.4375 19.8508 9.4375Z" fill="#FCF2FF"/>
<path d="M23.1821 10.682H17.2183C16.3052 10.682 15.489 11.2501 15.1715 12.1058L14.2163 14.6793C14.2017 14.7185 14.1643 14.7445 14.1225 14.7445H12.4202C11.8815 14.7445 11.4183 15.1583 11.3933 15.6964C11.3665 16.2708 11.824 16.7445 12.3921 16.7445H14.339C15.084 16.7445 15.7577 16.2751 16.0165 15.5764L17.0108 12.8883C17.0402 12.8095 17.1102 12.7495 17.194 12.7445C17.3133 12.737 17.4127 12.8314 17.4127 12.9495V25.7158C17.4127 26.2545 17.8265 26.7176 18.3646 26.7426C18.939 26.7695 19.4127 26.312 19.4127 25.7439V18.7816C19.4127 18.5153 19.614 18.2829 19.8796 18.2654C20.1616 18.2654 20.4127 18.4772 20.4127 18.7641V25.7158C20.4127 26.2545 20.8265 26.7176 21.3646 26.7426C21.939 26.7695 22.4127 26.312 22.4127 25.7439L22.4315 13.2426C22.4315 12.9676 22.6546 12.7439 22.9302 12.7439C23.2059 12.7439 23.429 12.967 23.429 13.2426L23.4102 18.0939C23.4102 18.662 23.884 19.1195 24.4584 19.0926C24.9965 19.0676 25.4102 18.6039 25.4102 18.0658V12.9095C25.4096 11.6795 24.4121 10.682 23.1821 10.682Z" fill="#FCF2FF"/>
<path d="M10.5083 17.4231L9.54264 18.3888C9.43452 18.4969 9.43452 18.6731 9.54264 18.7813L10.9614 20.2C11.0695 20.3081 11.2458 20.3081 11.3539 20.2L12.3195 19.2344C12.4276 19.1263 12.4276 18.95 12.3195 18.8419L10.9008 17.4231C10.7926 17.315 10.617 17.315 10.5083 17.4231Z" fill="#FCF2FF"/>
<path d="M13.4308 18.9375V25.3375C13.4308 25.3927 13.386 25.4375 13.3308 25.4375H8.53079C8.47556 25.4375 8.43079 25.3927 8.43079 25.3375V18.9375C8.43079 18.6613 8.20704 18.4375 7.93079 18.4375C7.65454 18.4375 7.43079 18.6613 7.43079 18.9375V25.6875C7.43079 26.1019 7.76641 26.4375 8.18079 26.4375H13.6808C14.0952 26.4375 14.4308 26.1019 14.4308 25.6875V18.9375C14.4308 18.6613 14.207 18.4375 13.9308 18.4375C13.6545 18.4375 13.4308 18.6613 13.4308 18.9375Z" fill="#FCF2FF"/>
</g>
<defs>
<filter id="filter0_ii_18590_364" x="2.06604" y="0.9375" width="28.875" height="28.875" filterUnits="userSpaceOnUse" color-interpolation-filters="sRGB">
<feFlood flood-opacity="0" result="BackgroundImageFix"/>
<feBlend mode="normal" in="SourceGraphic" in2="BackgroundImageFix" result="shape"/>
<feColorMatrix in="SourceAlpha" type="matrix" values="0 0 0 0 0 0 0 0 0 0 0 0 0 0 0 0 0 0 127 0" result="hardAlpha"/>
<feOffset dx="1" dy="-1"/>
<feGaussianBlur stdDeviation="1.5"/>
<feComposite in2="hardAlpha" operator="arithmetic" k2="-1" k3="1"/>
<feColorMatrix type="matrix" values="0 0 0 0 0.188235 0 0 0 0 0.470588 0 0 0 0 0.843137 0 0 0 1 0"/>
<feBlend mode="normal" in2="shape" result="effect1_innerShadow_18590_364"/>
<feColorMatrix in="SourceAlpha" type="matrix" values="0 0 0 0 0 0 0 0 0 0 0 0 0 0 0 0 0 0 127 0" result="hardAlpha"/>
<feOffset dy="-1"/>
<feGaussianBlur stdDeviation="1.5"/>
<feComposite in2="hardAlpha" operator="arithmetic" k2="-1" k3="1"/>
<feColorMatrix type="matrix" values="0 0 0 0 0.27451 0 0 0 0 0.34902 0 0 0 0 0.8 0 0 0 1 0"/>
<feBlend mode="normal" in2="effect1_innerShadow_18590_364" result="effect2_innerShadow_18590_364"/>
</filter>
<filter id="filter1_f_18590_364" x="25.5035" y="1.6875" width="5.5" height="28.375" filterUnits="userSpaceOnUse" color-interpolation-filters="sRGB">
<feFlood flood-opacity="0" result="BackgroundImageFix"/>
<feBlend mode="normal" in="SourceGraphic" in2="BackgroundImageFix" result="shape"/>
<feGaussianBlur stdDeviation="1" result="effect1_foregroundBlur_18590_364"/>
</filter>
<filter id="filter2_f_18590_364" x="2.77991" y="1" width="27.2812" height="5.5" filterUnits="userSpaceOnUse" color-interpolation-filters="sRGB">
<feFlood flood-opacity="0" result="BackgroundImageFix"/>
<feBlend mode="normal" in="SourceGraphic" in2="BackgroundImageFix" result="shape"/>
<feGaussianBlur stdDeviation="1" result="effect1_foregroundBlur_18590_364"/>
</filter>
<filter id="filter3_f_18590_364" x="6.43079" y="3.4375" width="19.9795" height="24.3063" filterUnits="userSpaceOnUse" color-interpolation-filters="sRGB">
<feFlood flood-opacity="0" result="BackgroundImageFix"/>
<feBlend mode="normal" in="SourceGraphic" in2="BackgroundImageFix" result="shape"/>
<feGaussianBlur stdDeviation="0.5" result="effect1_foregroundBlur_18590_364"/>
</filter>
<filter id="filter4_ii_18590_364" x="7.03079" y="4.0375" width="18.7795" height="23.1063" filterUnits="userSpaceOnUse" color-interpolation-filters="sRGB">
<feFlood flood-opacity="0" result="BackgroundImageFix"/>
<feBlend mode="normal" in="SourceGraphic" in2="BackgroundImageFix" result="shape"/>
<feColorMatrix in="SourceAlpha" type="matrix" values="0 0 0 0 0 0 0 0 0 0 0 0 0 0 0 0 0 0 127 0" result="hardAlpha"/>
<feOffset dx="-0.4" dy="0.4"/>
<feGaussianBlur stdDeviation="0.375"/>
<feComposite in2="hardAlpha" operator="arithmetic" k2="-1" k3="1"/>
<feColorMatrix type="matrix" values="0 0 0 0 0.901961 0 0 0 0 0.854902 0 0 0 0 0.980392 0 0 0 1 0"/>
<feBlend mode="normal" in2="shape" result="effect1_innerShadow_18590_364"/>
<feColorMatrix in="SourceAlpha" type="matrix" values="0 0 0 0 0 0 0 0 0 0 0 0 0 0 0 0 0 0 127 0" result="hardAlpha"/>
<feOffset dx="0.4" dy="-0.4"/>
<feGaussianBlur stdDeviation="0.2"/>
<feComposite in2="hardAlpha" operator="arithmetic" k2="-1" k3="1"/>
<feColorMatrix type="matrix" values="0 0 0 0 1 0 0 0 0 0.988235 0 0 0 0 1 0 0 0 1 0"/>
<feBlend mode="normal" in2="effect1_innerShadow_18590_364" result="effect2_innerShadow_18590_364"/>
</filter>
<linearGradient id="paint0_linear_18590_364" x1="16.0035" y1="5.51201" x2="16.0035" y2="38.7647" gradientUnits="userSpaceOnUse">
<stop stop-color="#5CB7FF"/>
<stop offset="1" stop-color="#4878DD"/>
</linearGradient>
<radialGradient id="paint1_radial_18590_364" cx="0" cy="0" r="1" gradientUnits="userSpaceOnUse" gradientTransform="translate(27.7223 4.03125) rotate(136.771) scale(2.14444 2.50466)">
<stop stop-color="#7BD7FF"/>
<stop offset="1" stop-color="#7BD7FF" stop-opacity="0"/>
</radialGradient>
<linearGradient id="paint2_linear_18590_364" x1="28.7535" y1="4.4375" x2="28.7535" y2="27.3125" gradientUnits="userSpaceOnUse">
<stop stop-color="#7FD9FF"/>
<stop offset="1" stop-color="#639DF4"/>
</linearGradient>
<linearGradient id="paint3_linear_18590_364" x1="28.4674" y1="4.00002" x2="2.93616" y2="4.00002" gradientUnits="userSpaceOnUse">
<stop stop-color="#7DD8FF"/>
<stop offset="1" stop-color="#5DB6FF"/>
</linearGradient>
</defs>
</svg>

<svg width="32" height="32" fill="none" xmlns="http://www.w3.org/2000/svg"><g filter="url(#a)"><rect x="2.066" y="1.938" width="27.875" height="27.875" rx="3.6" fill="url(#b)"/><rect x="2.066" y="1.938" width="27.875" height="27.875" rx="3.6" fill="url(#c)"/></g><g filter="url(#d)"><path d="M28.253 4.438v22.875" stroke="url(#e)" stroke-width="1.5" stroke-linecap="round"/></g><g filter="url(#f)"><path d="M5.53 3.75H27.31" stroke="url(#g)" stroke-width="1.5" stroke-linecap="round"/></g><g filter="url(#h)" fill="#579FFF"><path d="M19.85 9.438a2.5 2.5 0 1 0 0-5 2.5 2.5 0 0 0 0 5ZM23.182 10.682h-5.964c-.913 0-1.729.568-2.046 1.424l-.956 2.573a.1.1 0 0 1-.093.066H12.42c-.538 0-1.002.413-1.027.951a1 1 0 0 0 1 1.048h1.946c.745 0 1.419-.469 1.678-1.168l.994-2.688c.03-.079.1-.139.183-.143a.205.205 0 0 1 .219.205v12.766c0 .538.413 1.002.952 1.027a1 1 0 0 0 1.048-1v-6.961c0-.267.201-.5.467-.517.282 0 .533.212.533.5v6.95c0 .54.413 1.003.952 1.028a1 1 0 0 0 1.048-1l.018-12.5a.499.499 0 0 1 .998 0l-.019 4.85a1 1 0 0 0 1.048 1c.539-.025.952-.49.952-1.027V12.91c0-1.23-.998-2.228-2.228-2.228ZM10.508 17.423l-.965.966a.278.278 0 0 0 0 .392L10.96 20.2a.278.278 0 0 0 .393 0l.966-.966a.278.278 0 0 0 0-.392l-1.42-1.419a.278.278 0 0 0-.392 0Z"/><path d="M13.43 18.938v6.4a.1.1 0 0 1-.1.1h-4.8a.1.1 0 0 1-.1-.1v-6.4a.5.5 0 1 0-1 0v6.75c0 .414.336.75.75.75h5.5a.75.75 0 0 0 .75-.75v-6.75a.5.5 0 1 0-1 0Z"/></g><g filter="url(#i)" fill="#FCF2FF"><path d="M19.85 9.438a2.5 2.5 0 1 0 0-5 2.5 2.5 0 0 0 0 5ZM23.182 10.682h-5.964c-.913 0-1.729.568-2.046 1.424l-.956 2.573a.1.1 0 0 1-.093.066H12.42c-.538 0-1.002.413-1.027.951a1 1 0 0 0 1 1.048h1.946c.745 0 1.419-.469 1.678-1.168l.994-2.688c.03-.079.1-.139.183-.143a.205.205 0 0 1 .219.205v12.766c0 .538.413 1.002.952 1.027a1 1 0 0 0 1.048-1v-6.961c0-.267.201-.5.467-.517.282 0 .533.212.533.5v6.95c0 .54.413 1.003.952 1.028a1 1 0 0 0 1.048-1l.018-12.5a.499.499 0 0 1 .998 0l-.019 4.85a1 1 0 0 0 1.048 1c.539-.025.952-.49.952-1.027V12.91c0-1.23-.998-2.228-2.228-2.228ZM10.508 17.423l-.965.966a.278.278 0 0 0 0 .392L10.96 20.2a.278.278 0 0 0 .393 0l.966-.966a.278.278 0 0 0 0-.392l-1.42-1.419a.278.278 0 0 0-.392 0Z"/><path d="M13.43 18.938v6.4a.1.1 0 0 1-.1.1h-4.8a.1.1 0 0 1-.1-.1v-6.4a.5.5 0 1 0-1 0v6.75c0 .414.336.75.75.75h5.5a.75.75 0 0 0 .75-.75v-6.75a.5.5 0 1 0-1 0Z"/></g><defs><filter id="a" x="2.066" y=".938" width="28.875" height="28.875" filterUnits="userSpaceOnUse" color-interpolation-filters="sRGB"><feFlood flood-opacity="0" result="BackgroundImageFix"/><feBlend in="SourceGraphic" in2="BackgroundImageFix" result="shape"/><feColorMatrix in="SourceAlpha" values="0 0 0 0 0 0 0 0 0 0 0 0 0 0 0 0 0 0 127 0" result="hardAlpha"/><feOffset dx="1" dy="-1"/><feGaussianBlur stdDeviation="1.5"/><feComposite in2="hardAlpha" operator="arithmetic" k2="-1" k3="1"/><feColorMatrix values="0 0 0 0 0.188235 0 0 0 0 0.470588 0 0 0 0 0.843137 0 0 0 1 0"/><feBlend in2="shape" result="effect1_innerShadow_18590_364"/><feColorMatrix in="SourceAlpha" values="0 0 0 0 0 0 0 0 0 0 0 0 0 0 0 0 0 0 127 0" result="hardAlpha"/><feOffset dy="-1"/><feGaussianBlur stdDeviation="1.5"/><feComposite in2="hardAlpha" operator="arithmetic" k2="-1" k3="1"/><feColorMatrix values="0 0 0 0 0.27451 0 0 0 0 0.34902 0 0 0 0 0.8 0 0 0 1 0"/><feBlend in2="effect1_innerShadow_18590_364" result="effect2_innerShadow_18590_364"/></filter><filter id="d" x="25.503" y="1.688" width="5.5" height="28.375" filterUnits="userSpaceOnUse" color-interpolation-filters="sRGB"><feFlood flood-opacity="0" result="BackgroundImageFix"/><feBlend in="SourceGraphic" in2="BackgroundImageFix" result="shape"/><feGaussianBlur stdDeviation="1" result="effect1_foregroundBlur_18590_364"/></filter><filter id="f" x="2.78" y="1" width="27.281" height="5.5" filterUnits="userSpaceOnUse" color-interpolation-filters="sRGB"><feFlood flood-opacity="0" result="BackgroundImageFix"/><feBlend in="SourceGraphic" in2="BackgroundImageFix" result="shape"/><feGaussianBlur stdDeviation="1" result="effect1_foregroundBlur_18590_364"/></filter><filter id="h" x="6.431" y="3.438" width="19.98" height="24.306" filterUnits="userSpaceOnUse" color-interpolation-filters="sRGB"><feFlood flood-opacity="0" result="BackgroundImageFix"/><feBlend in="SourceGraphic" in2="BackgroundImageFix" result="shape"/><feGaussianBlur stdDeviation=".5" result="effect1_foregroundBlur_18590_364"/></filter><filter id="i" x="7.031" y="4.037" width="18.779" height="23.106" filterUnits="userSpaceOnUse" color-interpolation-filters="sRGB"><feFlood flood-opacity="0" result="BackgroundImageFix"/><feBlend in="SourceGraphic" in2="BackgroundImageFix" result="shape"/><feColorMatrix in="SourceAlpha" values="0 0 0 0 0 0 0 0 0 0 0 0 0 0 0 0 0 0 127 0" result="hardAlpha"/><feOffset dx="-.4" dy=".4"/><feGaussianBlur stdDeviation=".375"/><feComposite in2="hardAlpha" operator="arithmetic" k2="-1" k3="1"/><feColorMatrix values="0 0 0 0 0.901961 0 0 0 0 0.854902 0 0 0 0 0.980392 0 0 0 1 0"/><feBlend in2="shape" result="effect1_innerShadow_18590_364"/><feColorMatrix in="SourceAlpha" values="0 0 0 0 0 0 0 0 0 0 0 0 0 0 0 0 0 0 127 0" result="hardAlpha"/><feOffset dx=".4" dy="-.4"/><feGaussianBlur stdDeviation=".2"/><feComposite in2="hardAlpha" operator="arithmetic" k2="-1" k3="1"/><feColorMatrix values="0 0 0 0 1 0 0 0 0 0.988235 0 0 0 0 1 0 0 0 1 0"/><feBlend in2="effect1_innerShadow_18590_364" result="effect2_innerShadow_18590_364"/></filter><linearGradient id="b" x1="16.003" y1="5.512" x2="16.003" y2="38.765" gradientUnits="userSpaceOnUse"><stop stop-color="#5CB7FF"/><stop offset="1" stop-color="#4878DD"/></linearGradient><linearGradient id="e" x1="28.753" y1="4.438" x2="28.753" y2="27.313" gradientUnits="userSpaceOnUse"><stop stop-color="#7FD9FF"/><stop offset="1" stop-color="#639DF4"/></linearGradient><linearGradient id="g" x1="28.467" y1="4" x2="2.936" y2="4" gradientUnits="userSpaceOnUse"><stop stop-color="#7DD8FF"/><stop offset="1" stop-color="#5DB6FF"/></linearGradient><radialGradient id="c" cx="0" cy="0" r="1" gradientUnits="userSpaceOnUse" gradientTransform="matrix(-1.56249 1.46876 -1.71548 -1.82495 27.722 4.031)"><stop stop-color="#7BD7FF"/><stop offset="1" stop-color="#7BD7FF" stop-opacity="0"/></radialGradient></defs></svg>
